public/avatar/item1/55.svg

<svg xmlns:xlink="http://www.w3.org/1999/xlink" height="65.4" width="80.15" xmlns="http://www.w3.org/2000/svg"><use height="15.6" transform="translate(13.4 32.9)" width="36.2" xlink:href="#a"/><defs><g id="a"><path d="M15 19.65q1.4-.4 2.05 1.2.6 1.65-.65 2.25-3.25 1.75-3.65 5.5-.15 1.5 1.2 4.1.25.5-.3 1-.55.55-1.1.3-3.85-1.45-3.5-6.25.5-6.5 5.95-8.1" fill="#8c6c4f" fill-rule="evenodd" transform="translate(18.2 -19.1)"/><path d="m12.9 29.5.6 2 1 1.25-.5.85h-1.35l-1.75-.75-1.25-2.25 3.25-1.1m4.25-8.75q.3 1.25-.4 2.1l-1.5 1.4-.85.25-.4-2.75 3.15-1" fill="#573c25" fill-rule="evenodd" transform="translate(18.2 -19.1)"/><path d="M8.05 31q-.4-1.05.1-3.55t1.5-4.2q1.25-2.1 2.8-3.05 1.4-.9 2-.25 1.05 1.1-.45 6.3-1.05 3.95-3.2 5.45-2.05 1.4-2.75-.7" fill="#e5a162" fill-rule="evenodd" transform="translate(18.2 -19.1)"/><path d="M14.9 20.45q.3.8.25 2l-.75 2.05-.75 2.75-1.05 3.55q-.95 2.8-1.65 2.7-1.75-.2-2.25-.8l-.3-1.5 2.25.05 1.85-5.75 1.1-4.2q.2-.95-.4-1.55l1.7.7" fill="#ab7849" fill-rule="evenodd" transform="translate(18.2 -19.1)"/><path d="M15.4 19.6q1.1-.1 1.75 1.15 1.1 2.3-1.1 2.95" fill="none" stroke="#292019" stroke-linecap="round" stroke-linejoin="round" transform="translate(18.2 -19.1)"/><path d="M16.5 23.5 14.7 25l-.9 2.5q.1.55-.85 2.35l.05.9q.15.6 1.15 1.6.6 1.25-.25 1.65-1.3.5-2.2-.25l-1.5-.3q-1.05-.05-1.5-.75-1.9-3.2-.2-7.45.7-1.8 2.15-3.65 1.35-1.75 2-1.85 1.4-.15 1.8 0l.55-.1" fill="none" stroke="#292019" stroke-linecap="round" stroke-linejoin="round" transform="translate(18.2 -19.1)"/><path d="M-15.2 19.65q5.45 1.6 5.95 8.1.35 4.8-3.5 6.25-.55.25-1.1-.3-.55-.5-.3-1 1.35-2.6 1.2-4.1-.35-3.75-3.65-5.5-1.2-.6-.6-2.25.6-1.6 2-1.2" fill="#8c6c4f" fill-rule="evenodd" transform="translate(18.2 -19.1)"/><path d="m-13.1 29.5 3.25 1.1-1.25 2.25-1.75.75h-1.35l-.5-.85 1-1.25q.35-.25.6-2m-4.25-8.75 3.15 1-.4 2.75-.85-.25-1.5-1.4q-.7-.85-.4-2.1" fill="#573c25" fill-rule="evenodd" transform="translate(18.2 -19.1)"/><path d="M-8.25 31q-.7 2.1-2.75.7-2.15-1.5-3.2-5.45-1.5-5.2-.45-6.3.6-.65 2.05.25 1.5.95 2.75 3.05 1 1.7 1.5 4.2t.1 3.55" fill="#e5a162" fill-rule="evenodd" transform="translate(18.2 -19.1)"/><path d="M-13.4 19.75q-.6.6-.4 1.55l1.1 4.2 1.85 5.75 2.25-.05q.3.65-.3 1.5-.5.6-2.25.8-.7.1-1.65-2.7-.85-3.05-1.05-3.55l-.75-2.75-.75-2.05q-.05-1.2.25-2l1.7-.7" fill="#ab7849" fill-rule="evenodd" transform="translate(18.2 -19.1)"/><path d="M-15.6 19.6q-1.1-.1-1.75 1.15-1.1 2.3 1.1 2.95" fill="none" stroke="#292019" stroke-linecap="round" stroke-linejoin="round" transform="translate(18.2 -19.1)"/><path d="m-16.7 23.5 1.8 1.5.9 2.5q1 2.25.85 2.35l-.05.9q-.15.6-1.15 1.6l-.2.7q-.1.7.45.95 1.3.5 2.2-.25l1.5-.3q1.1-.05 1.5-.75 1.9-3.2.2-7.45-.7-1.8-2.15-3.65-1.35-1.75-2-1.85-1.4-.15-1.8 0l-.55-.1" fill="none" stroke="#292019" stroke-linecap="round" stroke-linejoin="round" transform="translate(18.2 -19.1)"/></g></defs></svg>

<?xml version="1.0" encoding="UTF-8" standalone="no"?>
<svg xmlns:xlink="http://www.w3.org/1999/xlink" height="65.4px" width="80.15px" xmlns="http://www.w3.org/2000/svg">
  <g transform="matrix(1.0, 0.0, 0.0, 1.0, 31.6, 13.8)">
    <use height="15.6" transform="matrix(1.0, 0.0, 0.0, 1.0, -18.2, 19.1)" width="36.2" xlink:href="#shape0"/>
  </g>
  <defs>
    <g id="shape0" transform="matrix(1.0, 0.0, 0.0, 1.0, 18.2, -19.1)">
      <path d="M15.0 19.65 Q16.4 19.25 17.05 20.85 17.65 22.5 16.4 23.1 13.15 24.85 12.75 28.6 12.6 30.1 13.95 32.7 14.2 33.2 13.65 33.7 13.1 34.25 12.55 34.0 8.7 32.55 9.05 27.75 9.55 21.25 15.0 19.65" fill="#8c6c4f" fill-rule="evenodd" stroke="none"/>
      <path d="M12.9 29.5 L13.5 31.5 14.5 32.75 14.0 33.6 12.65 33.6 10.9 32.85 9.65 30.6 12.9 29.5" fill="#573c25" fill-rule="evenodd" stroke="none"/>
      <path d="M17.15 20.75 Q17.45 22.0 16.75 22.85 L15.25 24.25 14.4 24.5 14.0 21.75 17.15 20.75" fill="#573c25" fill-rule="evenodd" stroke="none"/>
      <path d="M8.05 31.0 Q7.65 29.95 8.15 27.45 8.65 24.95 9.65 23.25 10.9 21.15 12.45 20.2 13.85 19.3 14.45 19.95 15.5 21.05 14.0 26.25 12.95 30.2 10.8 31.7 8.75 33.1 8.05 31.0" fill="#e5a162" fill-rule="evenodd" stroke="none"/>
      <path d="M14.9 20.45 Q15.2 21.25 15.15 22.45 L14.4 24.5 13.65 27.25 12.6 30.8 Q11.65 33.6 10.95 33.5 9.2 33.3 8.7 32.7 L8.4 31.2 10.65 31.25 12.5 25.5 13.6 21.3 Q13.8 20.35 13.2 19.75 L14.9 20.45" fill="#ab7849" fill-rule="evenodd" stroke="none"/>
      <path d="M15.4 19.6 Q16.5 19.5 17.15 20.75 18.25 23.05 16.05 23.7" fill="none" stroke="#292019" stroke-linecap="round" stroke-linejoin="round" stroke-width="1.0"/>
      <path d="M16.5 23.5 L14.7 25.0 13.8 27.5 Q13.9 28.05 12.95 29.85 L13.0 30.75 Q13.15 31.35 14.15 32.35 14.75 33.6 13.9 34.0 12.6 34.5 11.7 33.75 L10.2 33.45 Q9.15 33.4 8.7 32.7 6.8 29.5 8.5 25.25 9.2 23.45 10.65 21.6 12.0 19.85 12.65 19.75 14.05 19.6 14.45 19.75 L15.0 19.65" fill="none" stroke="#292019" stroke-linecap="round" stroke-linejoin="round" stroke-width="1.0"/>
      <path d="M-15.2 19.65 Q-9.75 21.25 -9.25 27.75 -8.9 32.55 -12.75 34.0 -13.3 34.25 -13.85 33.7 -14.4 33.2 -14.15 32.7 -12.8 30.1 -12.95 28.6 -13.3 24.85 -16.6 23.1 -17.8 22.5 -17.2 20.85 -16.6 19.25 -15.2 19.65" fill="#8c6c4f" fill-rule="evenodd" stroke="none"/>
      <path d="M-13.1 29.5 L-9.85 30.6 -11.1 32.85 -12.85 33.6 -14.2 33.6 -14.7 32.75 -13.7 31.5 Q-13.35 31.25 -13.1 29.5" fill="#573c25" fill-rule="evenodd" stroke="none"/>
      <path d="M-17.35 20.75 L-14.2 21.75 -14.6 24.5 -15.45 24.25 -16.95 22.85 Q-17.65 22.0 -17.35 20.75" fill="#573c25" fill-rule="evenodd" stroke="none"/>
      <path d="M-8.25 31.0 Q-8.95 33.1 -11.0 31.7 -13.15 30.2 -14.2 26.25 -15.7 21.05 -14.65 19.95 -14.05 19.3 -12.6 20.2 -11.1 21.15 -9.85 23.25 -8.85 24.95 -8.35 27.45 -7.85 29.95 -8.25 31.0" fill="#e5a162" fill-rule="evenodd" stroke="none"/>
      <path d="M-13.4 19.75 Q-14.0 20.35 -13.8 21.3 L-12.7 25.5 -10.85 31.25 -8.6 31.2 Q-8.3 31.85 -8.9 32.7 -9.4 33.3 -11.15 33.5 -11.85 33.6 -12.8 30.8 -13.65 27.75 -13.85 27.25 L-14.6 24.5 -15.35 22.45 Q-15.4 21.25 -15.1 20.45 L-13.4 19.75" fill="#ab7849" fill-rule="evenodd" stroke="none"/>
      <path d="M-15.6 19.6 Q-16.7 19.5 -17.35 20.75 -18.45 23.05 -16.25 23.7" fill="none" stroke="#292019" stroke-linecap="round" stroke-linejoin="round" stroke-width="1.0"/>
      <path d="M-16.7 23.5 L-14.9 25.0 -14.0 27.5 Q-13.0 29.75 -13.15 29.85 L-13.2 30.75 Q-13.35 31.35 -14.35 32.35 L-14.55 33.05 Q-14.65 33.75 -14.1 34.0 -12.8 34.5 -11.9 33.75 L-10.4 33.45 Q-9.3 33.4 -8.9 32.7 -7.0 29.5 -8.7 25.25 -9.4 23.45 -10.85 21.6 -12.2 19.85 -12.85 19.75 -14.25 19.6 -14.65 19.75 L-15.2 19.65" fill="none" stroke="#292019" stroke-linecap="round" stroke-linejoin="round" stroke-width="1.0"/>
    </g>
  </defs>
</svg>
